img/brand_visual_person3_arm.svg

<svg width="51" height="78" viewBox="0 0 51 78" fill="none" xmlns="http://www.w3.org/2000/svg">
<g clip-path="url(#clip0)">
<path d="M23.0534 65.6783L29.4768 77.5544C29.5296 77.6536 29.6011 77.7413 29.6872 77.8122C29.7733 77.8832 29.8723 77.9361 29.9786 77.968C30.0848 77.9998 30.1962 78.01 30.3063 77.9978C30.4164 77.9857 30.5231 77.9515 30.6202 77.8972L50.5712 66.6295C50.7584 66.5225 50.8983 66.3467 50.9624 66.138C51.0265 65.9293 51.0098 65.7036 50.9159 65.507L44.7448 52.5341C44.6937 52.4277 44.6216 52.3332 44.5329 52.2566C44.4442 52.1801 44.3409 52.1231 44.2295 52.0892C44.1181 52.0554 44.001 52.0455 43.8857 52.0601C43.7703 52.0748 43.6592 52.1136 43.5593 52.1742L23.3813 64.5301C23.1906 64.6402 23.0496 64.8218 22.9883 65.0363C22.9271 65.2508 22.9504 65.4812 23.0534 65.6783Z" fill="#667770"/>
<path d="M25.4328 65.7383L30.6791 75.4551C30.7326 75.5536 30.8046 75.6404 30.891 75.7105C30.9775 75.7806 31.0766 75.8327 31.1828 75.8637C31.289 75.8947 31.4002 75.9041 31.5099 75.8914C31.6197 75.8786 31.7259 75.8439 31.8225 75.7893L48.318 66.4838C48.5052 66.3768 48.6451 66.201 48.7092 65.9923C48.7733 65.7837 48.7567 65.5579 48.6627 65.3613L43.6182 54.7448C43.5679 54.6377 43.4964 54.5423 43.408 54.4649C43.3197 54.3874 43.2165 54.3295 43.105 54.2949C42.9935 54.2602 42.8762 54.2496 42.7605 54.2636C42.6448 54.2776 42.5332 54.316 42.4328 54.3764L25.7354 64.5901C25.549 64.7044 25.4134 64.8879 25.3569 65.102C25.3005 65.3161 25.3277 65.5442 25.4328 65.7383Z" fill="#00B28C"/>
<path d="M20.2369 36.6308C21.2794 37.9846 35.3704 56.6128 37.363 58.4807C38.683 59.7146 43.2482 63.8618 42.0544 65.01C40.8605 66.1582 38.6914 64.8643 37.2285 63.699C38.6745 66.381 42.4579 72.4133 41.0034 73.9299C39.5489 75.4466 36.6063 70.6567 35.7319 69.4657C36.6567 71.3422 39.5573 76.3206 38.2542 77.2288C36.6483 78.3171 33.5628 73.5015 32.5539 71.2908C33.5207 73.4415 34.9584 76.8433 33.3946 77.563C32.3353 78.0514 31.2339 76.0892 30.4856 74.7697C29.5104 73.0559 12.3927 46.8446 10.5598 42.1661L20.2369 36.6308Z" fill="#FFE87B"/>
<path d="M32.3774 52.4313C33.5544 52.1913 34.1682 53.2881 35.7404 55.3275C35.8761 55.4694 35.9694 55.6477 36.0094 55.8416C36.0935 56.3214 35.6059 56.6984 35.1687 56.9298C33.6553 57.7867 25.9204 62.1823 24.096 63.4334C23.8205 63.6126 23.492 63.6876 23.1679 63.6453C22.8437 63.6031 22.5443 63.4462 22.322 63.202C21.7744 62.5191 21.3009 61.7779 20.9095 60.9913C20.7822 60.8114 20.7118 60.5962 20.7078 60.3744C20.7078 60.0059 21.1113 59.7746 21.4392 59.6118C25.1217 57.7609 31.2003 52.6626 32.3774 52.4313Z" fill="#343B38"/>
<path d="M23.995 56.3471C25.3944 55.2364 26.9016 54.2746 28.4931 53.4767C28.9 53.3076 29.3557 53.3076 29.7626 53.4767C31.2691 54.6037 32.5889 55.969 33.6721 57.521C33.7435 57.7462 33.7489 57.9877 33.6877 58.216C33.6265 58.4443 33.5013 58.6495 33.3274 58.8063C32.0428 60.1359 30.5442 61.2314 28.8966 62.0452C28.1819 62.4896 27.3373 62.6654 26.5089 62.5422C25.2898 62.1652 23.1459 59.1833 23.045 58.2579C22.9801 57.8776 23.0376 57.4861 23.2088 57.1418C23.38 56.7975 23.6558 56.5187 23.995 56.3471Z" fill="#444E4A"/>
<path d="M1.16012 23.5809C4.59879 13.0758 13.8891 7.04347 23.9445 3.30756C29.3001 1.31965 39.9188 -0.548308 46.0394 0.145749L43.3659 20.5647C36.0261 20.3762 27.1898 22.5869 24.7684 24.1378C21.5988 26.16 18.0424 30.2215 20.3293 34.3516C21.17 35.9282 22.8515 35.0714 24.3985 36.5537C25.6176 37.7191 24.2472 40.024 25.5755 40.898C27.5934 42.2176 29.0731 42.4661 28.1819 45.2337C26.7778 49.6209 20.4301 55.9017 15.8985 55.8245C13.3762 55.7731 13.8807 52.4571 11.6947 50.9233C10.4084 50.0664 9.8619 50.7519 8.59236 50.1693C6.74271 49.3124 7.75161 45.0281 5.91037 43.8799C0.840632 40.7181 -1.60596 32.0295 1.16012 23.5809Z" fill="#7393ED"/>
<path d="M20.6236 24.5234C20.9948 24.7988 21.3066 25.1487 21.54 25.5516C21.6325 25.7058 21.8175 25.98 21.7586 26.1685C21.6998 26.357 21.5148 26.4085 21.3971 26.477C21.2794 26.5456 21.498 26.477 21.3971 26.477L21.2458 26.5284L21.0188 26.5627C21.0188 26.5627 20.8506 26.5627 20.9347 26.5627C20.6213 26.5883 20.3064 26.5883 19.9931 26.5627C18.6751 26.5007 17.3687 26.2821 16.1004 25.9115C15.98 25.8857 15.8546 25.9035 15.7457 25.9616C15.6368 26.0198 15.5511 26.1148 15.5034 26.2303C15.4557 26.3458 15.4489 26.4746 15.4842 26.5947C15.5195 26.7148 15.5947 26.8186 15.6968 26.8883C16.2108 27.2025 16.7835 27.4039 17.3783 27.4795C18.0895 27.6083 18.8088 27.6856 19.5306 27.7109C20.1305 27.7452 20.7322 27.702 21.3215 27.5824C21.6698 27.5308 21.9935 27.3691 22.2469 27.12C22.5004 26.871 22.6707 26.5472 22.7339 26.1942C22.7844 25.1746 21.7334 24.2663 20.9179 23.8721C20.8416 23.8348 20.7542 23.8282 20.6734 23.8537C20.5925 23.8791 20.524 23.9347 20.4815 24.0093C20.4391 24.0839 20.4258 24.1721 20.4443 24.2563C20.4629 24.3405 20.5119 24.4144 20.5816 24.4634L20.6236 24.5234Z" fill="#343B38"/>
</g>
<defs>
<clipPath id="clip0">
<rect width="51" height="78" fill="white"/>
</clipPath>
</defs>
</svg>

<svg xmlns="http://www.w3.org/2000/svg" width="51" height="78" fill="none" xmlns:v="https://vecta.io/nano"><g clip-path="url(#A)"><path d="M23.053 65.678l6.423 11.876c.053.099.124.187.21.258s.185.124.291.156.218.042.328.03a.83.83 0 0 0 .314-.101L50.571 66.63c.187-.107.327-.283.391-.491a.87.87 0 0 0-.047-.631l-6.171-12.973c-.051-.106-.123-.201-.212-.278a.84.84 0 0 0-.303-.167c-.111-.034-.229-.044-.344-.029a.83.83 0 0 0-.326.114L23.381 64.53c-.191.11-.332.292-.393.506a.87.87 0 0 0 .065.642z" fill="#667770"/><path d="M25.433 65.738l5.246 9.717c.054.099.126.185.212.255s.186.122.292.153a.83.83 0 0 0 .64-.074l16.495-9.305c.187-.107.327-.283.391-.492a.87.87 0 0 0-.047-.631l-5.044-10.617c-.05-.107-.122-.203-.21-.28s-.191-.135-.303-.17-.229-.045-.344-.031a.83.83 0 0 0-.328.113L25.735 64.59c-.186.114-.322.298-.378.512a.87.87 0 0 0 .076.636z" fill="#00b28c"/><path d="M20.237 36.631c1.043 1.354 15.133 19.982 17.126 21.85 1.32 1.234 5.885 5.381 4.691 6.529s-3.363-.146-4.826-1.311c1.446 2.682 5.229 8.714 3.775 10.231s-4.397-3.273-5.271-4.464c.925 1.877 3.825 6.855 2.522 7.763-1.606 1.088-4.691-3.727-5.7-5.938.967 2.151 2.404 5.552.841 6.272-1.059.488-2.161-1.474-2.909-2.793-.975-1.714-18.093-27.925-19.926-32.604l9.677-5.535z" fill="#ffe87b"/><path d="M32.377 52.431c1.177-.24 1.791.857 3.363 2.896a1.05 1.05 0 0 1 .269.514c.084.48-.404.857-.841 1.088l-11.073 6.504c-.276.179-.604.254-.928.212s-.624-.199-.846-.443c-.548-.683-1.021-1.424-1.412-2.211-.127-.18-.198-.395-.202-.617 0-.369.404-.6.731-.763 3.683-1.851 9.761-6.949 10.938-7.181z" fill="#343b38"/><path d="M23.995 56.347c1.399-1.111 2.907-2.072 4.498-2.87a1.65 1.65 0 0 1 1.27 0 17.7 17.7 0 0 1 3.91 4.044 1.24 1.24 0 0 1 .016.695 1.22 1.22 0 0 1-.36.59 16.04 16.04 0 0 1-4.431 3.239c-.715.444-1.559.62-2.388.497-1.219-.377-3.363-3.359-3.464-4.284a1.82 1.82 0 0 1 .164-1.116c.171-.344.447-.623.786-.795z" fill="#444e4a"/><path d="M1.16 23.581C4.599 13.076 13.889 7.043 23.945 3.308 29.3 1.32 39.919-.548 46.039.146l-2.673 20.419c-7.34-.188-16.176 2.022-18.598 3.573-3.17 2.022-6.726 6.084-4.439 10.214.841 1.577 2.522.72 4.069 2.202 1.219 1.165-.151 3.47 1.177 4.344 2.018 1.32 3.498 1.568 2.606 4.336-1.404 4.387-7.752 10.668-12.283 10.591-2.522-.051-2.018-3.367-4.204-4.901-1.286-.857-1.833-.171-3.102-.754-1.85-.857-.841-5.141-2.682-6.289-5.07-3.162-7.516-11.85-4.75-20.299z" fill="#7393ed"/><path d="M20.624 24.523c.371.275.683.625.916 1.028.093.154.277.428.219.617s-.244.24-.362.308.101 0 0 0l-.151.051-.227.034h-.084a5.78 5.78 0 0 1-.942 0 16.67 16.67 0 0 1-3.893-.651.52.52 0 0 0-.355.05c-.109.058-.195.153-.242.269a.55.55 0 0 0-.019.364.54.54 0 0 0 .213.294 4.25 4.25 0 0 0 1.681.591c.711.129 1.431.206 2.152.231.6.034 1.202-.009 1.791-.128a1.67 1.67 0 0 0 .925-.462c.253-.249.424-.573.487-.926.051-1.02-1-1.928-1.816-2.322a.33.33 0 0 0-.244-.018c-.081.025-.149.081-.192.156a.35.35 0 0 0-.037.247c.019.084.068.158.137.207l.042.06z" fill="#343b38"/></g><defs><clipPath id="A"><path fill="#fff" d="M0 0h51v78H0z"/></clipPath></defs></svg>
